X:78
T:The Banks of Glenoe
B:Joyce, P. W.; "Old Irish Folk Music and Songs"
H:Tune up your fiddle and rosin your bow,
H:And play us a tune on the banks
R:jig
L:1/8
M:6/8
K:C
A|GEE cEE|GEE G2 A|GEE cBc|Add dcA|
GEE cee|cde eag|fef ded cAA A2:: d|
e3 g^fg|ABA c2 d|eaa aga|edd dcd|
eg^f ged|cAA cde|fef ded|cAA A2:|
